resources/svg/checkbox-multiple-blank-line.svg

<svg fill="currentColor" viewBox="0 0 24 24" xmlns="http://www.w3.org/2000/svg"><path d="M6.99979 7V3C6.99979 2.44772 7.4475 2 7.99979 2H20.9998C21.5521 2 21.9998 2.44772 21.9998 3V16C21.9998 16.5523 21.5521 17 20.9998 17H17V20.9925C17 21.5489 16.551 22 15.9925 22H3.00728C2.45086 22 2 21.5511 2 20.9925L2.00276 8.00748C2.00288 7.45107 2.4518 7 3.01025 7H6.99979ZM8.99979 7H15.9927C16.549 7 17 7.44892 17 8.00748V15H19.9998V4H8.99979V7ZM4.00255 9L4.00021 20H15V9H4.00255Z"/></svg>

<svg xmlns="http://www.w3.org/2000/svg" viewBox="0 0 24 24" fill="currentColor">
    <g>
        <path fill="none" d="M0 0h24v24H0z"/>
        <path fill-rule="nonzero" d="M7 7V3a1 1 0 0 1 1-1h13a1 1 0 0 1 1 1v13a1 1 0 0 1-1 1h-4v3.993c0 .556-.449 1.007-1.007 1.007H3.007A1.006 1.006 0 0 1 2 20.993l.003-12.986C2.003 7.451 2.452 7 3.01 7H7zm2 0h6.993C16.549 7 17 7.449 17 8.007V15h3V4H9v3zM4.003 9L4 20h11V9H4.003z"/>
    </g>
</svg>
